apps/ui-icons/svgs/save.svg

<svg viewBox="0 0 24 24" width="24" height="24"  fill="none" xmlns="http://www.w3.org/2000/svg">
<path fill-rule="evenodd" clip-rule="evenodd" d="M12 3C12.5523 3 13 3.44772 13 4L13 11.5858L14.2929 10.2929C14.6834 9.90237 15.3166 9.90237 15.7071 10.2929C16.0976 10.6834 16.0976 11.3166 15.7071 11.7071L12 15.4142L8.29289 11.7071C7.90237 11.3166 7.90237 10.6834 8.29289 10.2929C8.68342 9.90237 9.31658 9.90237 9.70711 10.2929L11 11.5858L11 4C11 3.44772 11.4477 3 12 3ZM2 9C2 7.34315 3.34315 6 5 6H8C8.55228 6 9 6.44772 9 7C9 7.55228 8.55228 8 8 8H5C4.44772 8 4 8.44772 4 9V17C4 17.5523 4.44772 18 5 18H19C19.5523 18 20 17.5523 20 17V9C20 8.44772 19.5523 8 19 8H16C15.4477 8 15 7.55228 15 7C15 6.44772 15.4477 6 16 6H19C20.6569 6 22 7.34315 22 9V17C22 18.6569 20.6569 20 19 20H5C3.34315 20 2 18.6569 2 17V9Z" fill="#171D26"/>
</svg>

<svg xmlns="http://www.w3.org/2000/svg" width="24" height="24" fill="none" viewBox="0 0 24 24">
  <path fill="#171D26" fill-rule="evenodd" d="M12 3a1 1 0 0 1 1 1v7.586l1.293-1.293a1 1 0 1 1 1.414 1.414L12 15.414l-3.707-3.707a1 1 0 1 1 1.414-1.414L11 11.586V4a1 1 0 0 1 1-1ZM2 9a3 3 0 0 1 3-3h3a1 1 0 0 1 0 2H5a1 1 0 0 0-1 1v8a1 1 0 0 0 1 1h14a1 1 0 0 0 1-1V9a1 1 0 0 0-1-1h-3a1 1 0 1 1 0-2h3a3 3 0 0 1 3 3v8a3 3 0 0 1-3 3H5a3 3 0 0 1-3-3V9Z" clip-rule="evenodd"/>
</svg>
